!!!!SEGMENT: pl-wumfc--n50557_moniuszko-stanislaw--przy-kadzieli-zapytajmy-sie-dziewczyno.krn
!!!cenid: 18xx:4087
!!!COM: Moniuszko, Stanisław
!!!COM-rismID: pe30008351
!!!CDT: 1819/05/05-1872/06/04
!!!CNT: Polish
!!!OTL: Przy kądzieli/Zapytajmy się dziewczyno
!!!PDT:
!!!AGN:
!!!SMS-siglum: PL-Wumfc
!!!SMS-shelfmark: N50557
!!!SMS-shelfwork: W
!!!SMS-variant:
!!!SMS-altvar:
!!!NIFC-rismSourceID: 1001171529
!!!NIFC-rismChildID: 1001171529
!!!NIFC-islandoraID: pl-wumfc:6869
!!!URL-pdf-islandora: https://repozytorium.nifc.pl/islandora/object/pl-wumfc%3A6869/datastream/PDF/view
!!!URL-scan: https://polish.musicsources.pl/pl/lokalizacje/galeria/druki-muzyczne/12575-przy-kadzieli @EN{Scan on Polish Music Sources Website} @PL{Skany w portalu Dziedzictwo Muzyki Polskiej w otwartym dostępie}
!!!ONB-nifc:
!!!AIN: 1 piano 1 soprn
!!!key: G
**kern	**kern	**dynam	**kern	**text	**text	**dynam
*part2	*part2	*part2	*part1	*part1	*part1	*part1
*staff3	*staff2	*	*staff1	*staff1	*staff1	*
*I"Fortepian.	*I"Fortepian.	*	*I"Śpiew.	*	*	*
*>[A,B,B,C]	*>[A,B,B,C]	*	*>[A,B,B,C]	*	*	*
*>A	*>A	*	*>A	*	*	*
*Ipiano	*Ipiano	*	*Isoprn	*	*	*
*ICklav	*ICklav	*	*ICvox	*	*	*
*IGacmp	*IGacmp	*	*IGsolo	*	*	*
*clefF4	*clefG2	*	*clefG2	*	*	*
*k[f#]	*k[f#]	*	*k[f#]	*	*	*
*G:	*G:	*	*G:	*	*	*
*M2/4	*M2/4	*	*M2/4	*	*	*
=1	=1	=1	=1	=1	=1	=1
*ped	*	*	*	*	*	*
!!LO:TX:B:a:t=Allegro.
!	!LO:TX:i:a:t=tranquillo	!	!	!	!	!
(16GG/LL	(16B/LL	p	2r	.	.	.
16D/	16d/	.	.	.	.	.
16GG/	16g/	.	.	.	.	.
16D/JJ	16b/JJ	.	.	.	.	.
8GG/L)	8g/L)	.	.	.	.	.
8DJ 8GG'/	8bJ 8g 8d 8B'/	.	.	.	.	.
=2!|:	=2!|:	=2!|:	=2!|:	=2!|:	=2!|:	=2!|:
*>B	*>B	*	*>B	*	*	*
(16GG/LL	(16B/LL	.	2r	.	.	.
16D/	16d/	.	.	.	.	.
16GG/	16g/	.	.	.	.	.
16D/JJ	16b/JJ	.	.	.	.	.
8GG/L)	8g/L)	.	.	.	.	.
*Xped	*	*	*	*	*	*
8DJ 8GG'/	8bJ 8g 8d 8B'/	.	.	.	.	.
=3	=3	=3	=3	=3	=3	=3
*ped	*	*	*	*	*	*
(16GG/LL	(16c/LL	.	8.b\	Za-	Czy	.
16D/	16d/	.	.	.	.	.
16GG/	16f#/	.	.	.	.	.
16D/JJ	16a/JJ	.	16a/	-py-	nie	.
8GG/L)	8f#/L)	.	8.dd\	-taj-	do-	.
8DJ 8GG'/	8aJ 8f# 8d 8c'/	.	.	.	.	.
*Xped	*	*	*	*	*	*
.	.	.	16cc\	-my	-syć	.
!!LO:LB:g=original
=4	=4	=4	=4	=4	=4	=4
*ped	*	*	*	*	*	*
(16GG/LL	(16B/LL	.	8.b\	się	nam	.
16D/	16d/	.	.	.	.	.
16GG/	16g/	.	.	.	.	.
16D/JJ	16b/JJ	.	16a/	dziew-	cha-	.
8GG/L)	8g/L)	.	8b\	-czy-	-tecz-	.
*Xped	*	*	*	*	*	*
8DJ 8GG'/	8bJ 8g 8d 8B'/	.	8g/	-no	-ki,	.
=5	=5	=5	=5	=5	=5	=5
*ped	*	*	*	*	*	*
(16GG/LL	(16c/LL	.	8.f#/	ja	cha-	.
16D/	16d/	.	.	.	.	.
16GG/	16f#/	.	.	.	.	.
16D/JJ	16a/JJ	.	16g/	sie-	-tecz-	.
8GG/L)	8f#/L)	.	8a/	-bie,	-ki	.
*Xped	*	*	*	*	*	*
8DJ 8GG'/	8aJ 8f# 8d 8c'/	.	8d/	ty	bie-	.
=6	=6	=6	=6	=6	=6	=6
*ped	*	*	*	*	*	*
(16GG/LL	(16B/LL	.	8g/	sie-	-lo-	.
16D/	16d/	.	.	.	.	.
16GG/	16g/	.	8b\	-bie:	-nej	.
16D/JJ	16b/JJ	.	.	.	.	.
8GG/L)	8g/L)	.	4r	.	.	.
*Xped	*	*	*	*	*	*
8DJ 8GG'/	8bJ 8g 8d 8B'/	.	.	.	.	.
=7	=7	=7	=7	=7	=7	=7
*ped	*	*	*	*	*	*
(16GG/LL	(16c/LL	.	8.b\	cze-	po-	.
16D/	16d/	.	.	.	.	.
16GG/	16f#/	.	.	.	.	.
16D/JJ	16a/JJ	.	16a/	-go	-pod	.
8GG/L)	8f#/L)	.	8.dd\	mar-	las-	.
8DJ 8GG'/	8aJ 8f# 8d 8c'/	.	.	.	.	.
*Xped	*	*	*	*	*	*
.	.	.	16cc#X\	-nie	-kiem,	.
!!LO:LB:g=original
=8	=8	=8	=8	=8	=8	=8
*ped	*	*	*	*	*	*
(16GG/LL	(16B/LL	.	8.ee\	la-	ko-	.
16D/	16d/	.	.	.	.	.
16GG/	16g/	.	.	.	.	.
16D/JJ	16b/JJ	.	16dd\	-ta	-ło	.
8GG/L)	8g/L)	.	8cc\	gi-	rzecz-	.
*Xped	*	*	*	*	*	*
8DJ 8GG'/	8bJ 8g 8d 8B'/	.	8b\	-ną	-ki,	.
=9	=9	=9	=9	=9	=9	=9
*ped	*	*	*	*	*	*
(16GG/LL	(16c/LL	.	8a/	dla	w dąb-	.
16D/	16d/	.	.	.	.	.
16GG/	16f#/	.	8cc\	mnie	-ro-	.
16D/JJ	16a/JJ	.	.	.	.	.
.	.	.	8qcc/	.	.	.
8GG/L)	8f#/L)	.	8.b\	i	-wie	.
8DJ 8GG'/	8aJ 8f# 8d 8c'/	.	.	.	.	.
*Xped	*	*	*	*	*	*
.	.	.	16a/	dla	zie-	.
=10	=10	=10	=10	=10	=10	=10
*ped	*	*	*	*	*	*
(16GG/LL	(16B/LL	.	8b\	cie-	-lo-	.
16D/	16d/	.	.	.	.	.
16GG/	16g/	.	8g/	-bie?	-nej,	.
16D/JJ	16b/JJ	.	.	.	.	.
!	!	!LO:HP:b:t=cre-scen-do:ext2=cd	!	!	!	!
8GG/L)	8g/L)	<	4r	.	.	.
*Xped	*	*	*	*	*	*
8DJ 8GG'/	8bJ 8g 8d 8B'/	.	.	.	.	.
!!LO:PB:g=original
=11	=11	=11	=11	=11	=11	=11
*ped	*	*	*	*	*	*
(16GG/LL	(16B/LL	.	8.b\	Czyż	gdzie	.
16D#X/	16f#/	.	.	.	.	.
16GG/	16a/	.	.	.	.	.
16D#/JJ	16b/JJ	.	16a/	przesz-	sło-	.
8GG/L)	8B/L)	.	8b\	-ko-	-wi-	.
*Xped	*	*	*	*	*	*
8D#J 8GG'/	8bJ 8a 8f# 8B/	.	8f#/	-dą	-ków	.
=12	=12	=12	=12	=12	=12	=12
*ped	*	*	*	*	*	*
(16GG/LL	(16B/LL	.	8.g/	bę-	sto	.
16E/	16e/	.	.	.	.	.
16GG/	16g/	.	.	.	.	.
16E/JJ	16b/JJ	.	16f#/	-dzie	ty-	.
8GG/L)	8B/L)	.	8e/	ca-	-się-	.
*Xped	*	*	*	*	*	*
8EJ 8GG'/	8bJ 8g 8e 8B'/	[[	8g/	-łą	-cy	.
=13	=13	=13	=13	=13	=13	=13
*ped	*	*	*	*	*	*
!	!	!	!	!	!	!LO:DY:a
(16GG/LL	(16B/LL	.	8.b\	że	gdzie	<
16F#/	16d#X/	.	.	.	.	.
16GG/	16f#/	<	.	.	.	.
16F#/JJ	16b/JJ	.	16a#X/	nie	kro-	.
8GG/L)	8B/L)	.	8b\	ma-	-cia-	.
8F#J 8GG'/	8bJ 8a 8d# 8B'/	[[	16dd\LL	-my	-mi	.
*Xped	*	*	*	*	*	*
.	.	.	16cc\JJ	.	.	[[
!!LO:LB:g=original
=14	=14	=14	=14	=14	=14	=14
*ped	*	*	*	*	*	*
!	!	!	!	!	!	!LO:DY:a
(16GG\LL	(16B/LL	f >	4.b\	zło-	kwie-	>
16G\	16e/	.	.	.	.	.
16GG\	16g/	.	.	.	.	.
16G\JJ	16b/JJ	.	.	.	.	.
8GG\L)	8B/L)	]]	.	.	.	.
*Xped	*	*	*	*	*	*
8GJ 8GG'\	8bJ 8g 8e 8B'/	.	8b\	-ta?	-cie!...	]]
=15	=15	=15	=15	=15	=15	=15
*ped	*	*	*	*	*	*
!	!	!	!	!	!	!LO:DY:a
(16GG/LL	(16c/LL	pp	8.b\	ach!	ach!	pp
16D/	16f#/	.	.	.	.	.
16GG/	16a/	.	.	.	.	.
16D/JJ	16dd/JJ	.	16a/	czyż	dla	.
8GG/L)	8a/L)	.	8.dd\	kie-	dwój-	.
8DJ 8GG'/	8aJ 8f# 8c'/	.	.	.	.	.
*Xped	*	*	*	*	*	*
.	.	.	16cc\	-dy	-ga	.
=16	=16	=16	=16	=16	=16	=16
*ped	*	*	*	*	*	*
(16GG/LL	(16B/LL	.	8.b\	o-	cze-	.
16D/	16d/	.	.	.	.	.
16GG/	16g/	.	.	.	.	.
16D/JJ	16dd/JJ	.	16a/	-no	-goż	.
8GG/L)	8b/L)	.	8b\	da-	wię-	.
*Xped	*	*	*	*	*	*
8DJ 8GG'/	8bJ 8g 8d 8B'/	.	8g/	-ło	-cej	.
=17	=17	=17	=17	=17	=17	=17
*ped	*	*	*	*	*	*
(16GG/LL	(16c/LL	.	8.f#/	szczęś-	po-	.
16D/	16d/	.	.	.	.	.
16GG/	16f#/	.	.	.	.	.
16D/JJ	16a/JJ	.	16g/	-cie	-trze-	.
8GG/L)	8f#/L)	.	8a/	dniom	-ba	.
*Xped	*	*	*	*	*	*
8DJ 8GG'/	8aJ 8f# 8d 8c'/	.	8d/	ży-	na	.
!!LO:LB:g=original
=18	=18	=18	=18	=18	=18	=18
*ped	*	*	*	*	*	*
(16GG/LL	(16B/LL	.	8g/	-wo-	świe-	.
16D/	16d/	.	.	.	.	.
16GG/	16g/	.	4b\	-ta?	-cie?	.
16D/JJ	16b/JJ	.	.	.	.	.
8GG/L)	8g/L)	.	.	.	.	.
*Xped	*	*	*	*	*	*
8DJ 8GG'/	8bJ 8g 8d 8B'/	.	8b\	ach!	ach!	.
=19	=19	=19	=19	=19	=19	=19
*ped	*	*	*	*	*	*
(16GG/LL	(16c/LL	.	8.b\	kie-	cze-	.
16D/	16d/	.	.	.	.	.
16GG/	16f#/	.	.	.	.	.
!	!	!	!	!	!	!LO:HP:a
16D/JJ	16a/JJ	.	16a/	-dyż,	-góż,	<
!	!	!LO:HP:b:t=cre-scen-do:ext2=cd	!	!	!	!
8GG/L)	8c/L)	<	8.dd\	kie-	cze-	.
8DJ 8GG'/	8aJ 8f# 8d 8c'/	.	.	.	.	.
*Xped	*	*	*	*	*	*
.	.	.	16cc#X\	-dy	-go	.
=20	=20	=20	=20	=20	=20	=20
*ped	*	*	*	*	*	*
(16GG/LL	(16B/LL	.	8.ee\	o-	trze-	.
16D/	16d/	.	.	.	.	.
16GG/	16g/	.	.	.	.	.
16D/JJ	16b/JJ	.	16dd\	-no	-ba	.
!	!LO:TX:t=P:problem:belka ma formę jakby w środku była pauza ósemkowa	!	!	!	!	!LO:HP:a
8GG/)	16g/LL)	[	8.gg;\	da-	wię-	[ >
.	16r	.	.	.	.	.
8r;	16bJJ 16g 16d 16B/	sf	.	.	.	.
*Xped	*	*	*	*	*	*
.	16r;	.	16b\	-ło	-cej	]]
!!LO:LB:g=original
=21	=21	=21	=21	=21	=21	=21
*ped	*	*	*	*	*	*
!	!	!LO:DY:b	!	!	!	!
(16DD/LL	(16A/LL	f >	8a/	szczęś-	dwój-	.
16D/	16c/	.	.	.	.	.
16DD/	16f#/	.	8dd\	-cie	-gu	.
16D/JJ	16a/JJ	]	.	.	.	.
.	.	.	8qff#/	.	.	.
*Xped	*	*	*	*	*	*
8DD'/)	16g 16c#X 16A#X'/)	.	8.ee;\	dniom	nam	.
.	16r	.	.	.	.	.
16r;	16r;	.	.	.	.	.
16D'\	16f# 16cn 16An'/	p	16dd\	ży-	na	.
=22	=22	=22	=22	=22	=22	=22
*ped	*	*	*	*	*	*
(16GG/LL	(16G/LL	.	8dd\	-wo-	świe-	.
16D/	16B/	.	.	.	.	.
16GG/	16d/	.	8g/	-ta?	-cie?	.
16D/JJ	16g/JJ	.	.	.	.	.
8GG'/L)	8d'/L)	.	4r	.	.	.
8DJ 8GG'/	8gJ 8d 8B'/	.	.	.	.	.
=23:|!	=23:|!	=23:|!	=23:|!	=23:|!	=23:|!	=23:|!
*>C	*>C	*	*>C	*	*	*
(16GG/LL	(16B/LL	.	2r	.	.	.
16D/	16d/	.	.	.	.	.
16GG/	16g/	.	.	.	.	.
16D/JJ	16b/JJ	.	.	.	.	.
*Xped	*	*	*	*	*	*
8GG/L)	8g/L)	pp	.	.	.	.
*ped	*	*	*	*	*	*
8GJ 8GG'/	8ddJ 8b 8g'/	.	.	.	.	.
=24	=24	=24	=24	=24	=24	=24
2d 2G;\	2gg 2b 2g;\	.	2r;	.	.	.
==	==	==	==	==	==	==
*-	*-	*-	*-	*-	*-	*-
!!!system-decoration: (p1){(p2)}
!!!ENC: Andrzej Gręziak
!!!END: 2022-08-19
!!!ENC: Kamil Watkowski
!!!END: 2022-09-24
!!!RDF**kern: > = above
!!!RDF**kern: < = below
!!!YEC: Copyright 2022 Narodowy Instytut Fryderyka Chopina (https://polishscores.org)
!!!YEM: License CC-BY-4.0 (https://creativecommons.org/licenses/by/4.0)
